Newaita-dark/apps/24/preferences-system-power.svg

<?xml version="1.0" encoding="UTF-8"?>
<svg xmlns="http://www.w3.org/2000/svg" xmlns:xlink="http://www.w3.org/1999/xlink" width="24px" height="24px" viewBox="0 0 24 24" version="1.1">
<defs>
<radialGradient id="radial0" gradientUnits="userSpaceOnUse" cx="450.908936" cy="189.579361" fx="450.908936" fy="189.579361" r="21.166656" gradientTransform="matrix(0.000000130628,-0.0585994,-0.105479,-0.0000000761539,33.392364,47.696497)">
<stop offset="0" style="stop-color:rgb(0%,0%,0%);stop-opacity:0.313726;"/>
<stop offset="0.222222" style="stop-color:rgb(0%,0%,0%);stop-opacity:0.27451;"/>
<stop offset="1" style="stop-color:rgb(0%,0%,0%);stop-opacity:0;"/>
</radialGradient>
<radialGradient id="radial1" gradientUnits="userSpaceOnUse" cx="450.908936" cy="189.579361" fx="450.908936" fy="189.579361" r="21.166656" gradientTransform="matrix(-0.000000130628,0.0585994,0.105479,0.0000000761539,-9.577589,-5.645612)">
<stop offset="0" style="stop-color:rgb(0%,0%,0%);stop-opacity:0.313726;"/>
<stop offset="0.222222" style="stop-color:rgb(0%,0%,0%);stop-opacity:0.27451;"/>
<stop offset="1" style="stop-color:rgb(0%,0%,0%);stop-opacity:0;"/>
</radialGradient>
<radialGradient id="radial2" gradientUnits="userSpaceOnUse" cx="450.908936" cy="189.579361" fx="450.908936" fy="189.579361" r="21.166656" gradientTransform="matrix(-0.000000130628,-0.0585994,0.105479,-0.0000000761539,-9.577589,47.696497)">
<stop offset="0" style="stop-color:rgb(0%,0%,0%);stop-opacity:0.313726;"/>
<stop offset="0.222222" style="stop-color:rgb(0%,0%,0%);stop-opacity:0.27451;"/>
<stop offset="1" style="stop-color:rgb(0%,0%,0%);stop-opacity:0;"/>
</radialGradient>
<radialGradient id="radial3" gradientUnits="userSpaceOnUse" cx="450.908936" cy="189.579361" fx="450.908936" fy="189.579361" r="21.166656" gradientTransform="matrix(0.000000130628,0.0585994,-0.105479,0.0000000761539,33.392362,-5.645612)">
<stop offset="0" style="stop-color:rgb(0%,0%,0%);stop-opacity:0.313726;"/>
<stop offset="0.222222" style="stop-color:rgb(0%,0%,0%);stop-opacity:0.27451;"/>
<stop offset="1" style="stop-color:rgb(0%,0%,0%);stop-opacity:0;"/>
</radialGradient>
<linearGradient id="linear0" gradientUnits="userSpaceOnUse" x1="255.323059" y1="233.5" x2="255.323044" y2="254.666656" gradientTransform="matrix(0.01002,0,0,0.0468795,9.34904,10.079088)">
<stop offset="0" style="stop-color:rgb(0%,0%,0%);stop-opacity:0.27451;"/>
<stop offset="1" style="stop-color:rgb(0%,0%,0%);stop-opacity:0;"/>
</linearGradient>
<linearGradient id="linear1" gradientUnits="userSpaceOnUse" x1="254" y1="-168.666672" x2="254" y2="233.5" gradientTransform="matrix(1,0,0,1,0,0)">
<stop offset="0" style="stop-color:rgb(56.470591%,64.313728%,68.235296%);stop-opacity:1;"/>
<stop offset="1" style="stop-color:rgb(47.058824%,56.470591%,61.176473%);stop-opacity:1;"/>
</linearGradient>
<linearGradient id="linear2" gradientUnits="userSpaceOnUse" x1="201.083328" y1="233.5" x2="201.083328" y2="-168.666656" gradientTransform="matrix(0.0468795,0,0,0.0468795,0,10.079087)">
<stop offset="0" style="stop-color:rgb(100%,65.490198%,14.901961%);stop-opacity:1;"/>
<stop offset="1" style="stop-color:rgb(100%,71.764708%,30.19608%);stop-opacity:1;"/>
</linearGradient>
</defs>
<g id="surface1">
<path style=" stroke:none;fill-rule:nonzero;fill:url(#radial0);" d="M 13.644531 21.027344 L 15.628906 21.027344 L 15.628906 20.03125 L 13.644531 20.03125 Z M 13.644531 21.027344 "/>
<path style=" stroke:none;fill-rule:nonzero;fill:url(#radial1);" d="M 10.171875 21.027344 L 8.1875 21.027344 L 8.1875 22.019531 L 10.171875 22.019531 Z M 10.171875 21.027344 "/>
<path style=" stroke:none;fill-rule:nonzero;fill:url(#radial2);" d="M 10.171875 21.027344 L 8.1875 21.027344 L 8.1875 20.03125 L 10.171875 20.03125 Z M 10.171875 21.027344 "/>
<path style=" stroke:none;fill-rule:nonzero;fill:url(#radial3);" d="M 13.644531 21.027344 L 15.628906 21.027344 L 15.628906 22.019531 L 13.644531 22.019531 Z M 13.644531 21.027344 "/>
<path style=" stroke:none;fill-rule:nonzero;fill:url(#linear0);" d="M 10.171875 20.777344 L 13.644531 20.777344 L 13.644531 22.019531 L 10.171875 22.019531 Z M 10.171875 20.777344 "/>
<path style="fill-rule:nonzero;fill:url(#linear1);stroke-width:3;stroke-linecap:round;stroke-linejoin:miter;stroke:rgb(20%,20%,20%);stroke-opacity:1;stroke-miterlimit:4;" d="M 253.975747 -168.671091 C 365.048473 -168.671091 455.123205 -78.679685 455.123205 32.393042 C 455.123205 143.465768 365.048473 233.5405 253.975747 233.5405 C 142.986345 233.5405 52.911614 143.465768 52.911614 32.393042 C 52.911614 -78.679685 142.986345 -168.671091 253.975747 -168.671091 Z M 253.975747 -168.671091 " transform="matrix(0.0468795,0,0,0.0468795,0,10.079087)"/>
<path style=" stroke:none;fill-rule:nonzero;fill:rgb(0%,0%,0%);fill-opacity:0.196078;" d="M 11.90625 20.964844 C 6.683594 20.964844 2.480469 16.757812 2.480469 11.535156 C 2.480469 11.507812 2.480469 11.476562 2.480469 11.445312 C 2.53125 16.625 6.714844 20.777344 11.90625 20.777344 C 17.097656 20.777344 21.285156 16.625 21.332031 11.445312 C 21.332031 11.476562 21.335938 11.507812 21.335938 11.535156 C 21.335938 16.757812 17.128906 20.964844 11.90625 20.964844 Z M 11.90625 20.964844 "/>
<path style=" stroke:none;fill-rule:nonzero;fill:rgb(100%,100%,100%);fill-opacity:0.392157;" d="M 11.90625 2.234375 C 6.683594 2.234375 2.480469 6.4375 2.480469 11.660156 C 2.480469 11.691406 2.480469 11.722656 2.480469 11.753906 C 2.53125 6.574219 6.714844 2.417969 11.90625 2.417969 C 17.097656 2.417969 21.285156 6.574219 21.332031 11.753906 C 21.332031 11.722656 21.335938 11.691406 21.335938 11.660156 C 21.335938 6.4375 17.128906 2.234375 11.90625 2.234375 Z M 11.90625 2.234375 "/>
<path style=" stroke:none;fill-rule:nonzero;fill:rgb(12.941177%,12.941177%,12.941177%);fill-opacity:1;" d="M 11.90625 2.101562 C 6.648438 2.101562 2.410156 6.339844 2.410156 11.597656 C 2.410156 16.859375 6.648438 21.097656 11.90625 21.097656 C 17.167969 21.097656 21.40625 16.859375 21.40625 11.597656 C 21.40625 6.339844 17.167969 2.101562 11.90625 2.101562 Z M 11.90625 2.242188 C 17.09375 2.242188 21.265625 6.414062 21.265625 11.597656 C 21.265625 16.785156 17.09375 20.957031 11.90625 20.957031 C 6.722656 20.957031 2.550781 16.785156 2.550781 11.597656 C 2.550781 6.414062 6.722656 2.242188 11.90625 2.242188 Z M 11.90625 2.242188 "/>
<path style=" stroke:none;fill-rule:evenodd;fill:url(#linear2);" d="M 8.433594 17.550781 L 15.875 11.597656 L 12.898438 10.605469 L 15.378906 5.644531 L 7.9375 11.597656 L 10.914062 12.589844 Z M 8.433594 17.550781 "/>
<path style=" stroke:none;fill-rule:evenodd;fill:rgb(100%,100%,100%);fill-opacity:0.392157;" d="M 15.378906 5.644531 L 7.9375 11.597656 L 8.375 11.746094 L 14.96875 6.472656 Z M 13.113281 10.675781 L 12.898438 11.101562 L 15.4375 11.949219 L 15.875 11.597656 Z M 10.703125 13.015625 L 8.433594 17.550781 L 8.847656 17.222656 L 10.914062 13.085938 Z M 10.703125 13.015625 "/>
<path style=" stroke:none;fill-rule:evenodd;fill:rgb(0%,0%,0%);fill-opacity:0.235294;" d="M 15.378906 6.140625 L 14.761719 6.636719 L 12.898438 10.359375 L 13.21875 10.464844 Z M 8.59375 11.570312 L 7.9375 12.09375 L 10.597656 12.980469 L 10.914062 12.34375 Z M 15.21875 11.875 L 9.054688 16.808594 L 8.433594 18.046875 L 15.875 12.09375 Z M 15.21875 11.875 "/>
<path style="fill:none;stroke-width:3;stroke-linecap:butt;stroke-linejoin:miter;stroke:rgb(12.941177%,12.941177%,12.941177%);stroke-opacity:1;stroke-miterlimit:4;" d="M 179.899487 159.380915 L 338.634329 32.393042 L 275.140392 11.228396 L 328.052006 -94.594831 L 169.317164 32.393042 L 232.811101 53.557687 Z M 179.899487 159.380915 " transform="matrix(0.0468795,0,0,0.0468795,0,10.079087)"/>
</g>
</svg>

<svg xmlns="http://www.w3.org/2000/svg" width="24" height="24"><defs><radialGradient id="a" gradientUnits="userSpaceOnUse" cx="450.909" cy="189.579" fx="450.909" fy="189.579" r="21.167" gradientTransform="matrix(0 -.0586 -.10548 0 33.392 47.696)"><stop offset="0" stop-opacity=".314"/><stop offset=".222" stop-opacity=".275"/><stop offset="1" stop-opacity="0"/></radialGradient><radialGradient id="b" gradientUnits="userSpaceOnUse" cx="450.909" cy="189.579" fx="450.909" fy="189.579" r="21.167" gradientTransform="matrix(0 .0586 .10548 0 -9.578 -5.646)"><stop offset="0" stop-opacity=".314"/><stop offset=".222" stop-opacity=".275"/><stop offset="1" stop-opacity="0"/></radialGradient><radialGradient id="c" gradientUnits="userSpaceOnUse" cx="450.909" cy="189.579" fx="450.909" fy="189.579" r="21.167" gradientTransform="matrix(0 -.0586 .10548 0 -9.578 47.696)"><stop offset="0" stop-opacity=".314"/><stop offset=".222" stop-opacity=".275"/><stop offset="1" stop-opacity="0"/></radialGradient><radialGradient id="d" gradientUnits="userSpaceOnUse" cx="450.909" cy="189.579" fx="450.909" fy="189.579" r="21.167" gradientTransform="matrix(0 .0586 -.10548 0 33.392 -5.646)"><stop offset="0" stop-opacity=".314"/><stop offset=".222" stop-opacity=".275"/><stop offset="1" stop-opacity="0"/></radialGradient><linearGradient id="e" gradientUnits="userSpaceOnUse" x1="255.323" y1="233.5" x2="255.323" y2="254.667" gradientTransform="matrix(.01002 0 0 .04688 9.349 10.08)"><stop offset="0" stop-opacity=".275"/><stop offset="1" stop-opacity="0"/></linearGradient><linearGradient id="f" gradientUnits="userSpaceOnUse" x1="254" y1="-168.667" x2="254" y2="233.5"><stop offset="0" stop-color="#616161"/><stop offset="1" stop-color="#424242"/></linearGradient><linearGradient id="g" gradientUnits="userSpaceOnUse" x1="254" y1="-168.667" x2="254" y2="233.5" gradientTransform="matrix(.04688 0 0 .04688 0 10.08)"><stop offset="0" stop-color="#4db6ac"/><stop offset="1" stop-color="#26a69a"/></linearGradient><linearGradient id="h" gradientUnits="userSpaceOnUse" x1="201.083" y1="233.5" x2="201.083" y2="-168.667" gradientTransform="matrix(.04688 0 0 .04688 0 10.08)"><stop offset="0" stop-color="#ffa726"/><stop offset="1" stop-color="#ffb74d"/></linearGradient></defs><path d="M13.645 21.027h1.984v-.996h-1.984zm0 0" fill="url(#a)"/><path d="M10.172 21.027H8.187v.993h1.985zm0 0" fill="url(#b)"/><path d="M10.172 21.027H8.187v-.996h1.985zm0 0" fill="url(#c)"/><path d="M13.645 21.027h1.984v.993h-1.984zm0 0" fill="url(#d)"/><path d="M10.172 20.777h3.473v1.243h-3.473zm0 0" fill="url(#e)"/><path d="M253.976-168.671c111.072 0 201.147 89.991 201.147 201.064s-90.075 201.148-201.147 201.148c-110.99 0-201.064-90.075-201.064-201.148s90.074-201.064 201.064-201.064zm0 0" transform="matrix(.04688 0 0 .04688 0 10.08)" fill="url(#f)" stroke-width="3" stroke-linecap="round" stroke="#333"/><path d="M2.48 11.676a9.408 9.408 0 0 0 9.426 9.351c5.2 0 9.387-4.164 9.426-9.351-7.5-5.594-10.496 5.488-18.852 0zm0 0" fill="url(#g)"/><path d="M11.906 20.965a9.408 9.408 0 0 1-9.426-9.43v-.09a9.404 9.404 0 0 0 9.426 9.332 9.402 9.402 0 0 0 9.426-9.332c0 .032.004.063.004.09a9.41 9.41 0 0 1-9.43 9.43zm0 0" fill-opacity=".196"/><path d="M11.906 2.234a9.404 9.404 0 0 0-9.426 9.52 9.408 9.408 0 0 1 9.426-9.336 9.405 9.405 0 0 1 9.426 9.336c0-.031.004-.063.004-.094a9.408 9.408 0 0 0-9.43-9.426zm0 0" fill="#fff" fill-opacity=".392"/><path d="M11.906 2.102a9.48 9.48 0 0 0-9.496 9.496 9.48 9.48 0 0 0 9.496 9.5 9.48 9.48 0 0 0 9.5-9.5 9.48 9.48 0 0 0-9.5-9.496zm0 .14a9.335 9.335 0 0 1 9.36 9.356 9.336 9.336 0 0 1-9.36 9.359 9.335 9.335 0 0 1-9.355-9.36 9.334 9.334 0 0 1 9.355-9.355zm0 0" fill="#212121"/><path d="M8.434 17.55l7.441-5.952-2.977-.993 2.48-4.96-7.44 5.953 2.976.992zm0 0" fill-rule="evenodd" fill="url(#h)"/><path d="M15.379 5.645l-7.441 5.953.437.148 6.594-5.273zm-2.266 5.03l-.215.427 2.54.847.437-.351zm-2.41 2.34l-2.27 4.536.415-.328 2.066-4.137zm0 0" fill-rule="evenodd" fill="#fff" fill-opacity=".392"/><path d="M15.379 6.14l-.617.497-1.864 3.722.32.106zm-6.785 5.43l-.656.524 2.66.886.316-.636zm6.625.305l-6.164 4.934-.621 1.238 7.441-5.953zm0 0" fill-rule="evenodd" fill-opacity=".235"/><path d="M8.434 17.55l7.441-5.952-2.977-.993 2.48-4.96-7.44 5.953 2.976.992zm0 0" fill="none" stroke-width=".14064" stroke="#212121"/></svg>
